symbols/web/reset_tv/materialsymbolssharp/reset_tv_wght300grad200_24px.svg

<svg xmlns="http://www.w3.org/2000/svg" height="24" width="24"><path d="M7.8 21.325v-2H1.7v-16.6h20.6V7.95h-2.15V4.875H3.85v12.3h16.3V12.1h-7.125l1.775 1.825-1.5 1.5-4.4-4.4 4.4-4.4 1.5 1.5-1.825 1.825H22.3v9.325h-6.1v2.05Zm5.275-10.3Z"/></svg>

<svg xmlns="http://www.w3.org/2000/svg" height="24" width="24"><path d="M7.8 21.325V19.325H1.7V2.725H22.3V7.95H20.15V4.875H3.85V17.175H20.15V12.1H13.025L14.8 13.925L13.3 15.425L8.9 11.025L13.3 6.625L14.8 8.125L12.975 9.95H22.3V19.275H16.2V21.325ZM13.075 11.025Z"/></svg>
